X:1
T:Piano Sonata no. 14 in C# min, op. 27, no. 2, movt 1
T:Ludwig van Beethoven
T:Moonlight Sonata (leadsheet)
T:https://musescore.com/ericfontainejazz/moonlight-sonata
T:https://musescore.com/ericfontainejazz/moonlight-sonata
Z:https://musescore.com/ericfontainejazz/moonlight-sonata
%%score 1 2
L:1/8
Q:1/4=120
M:4/4
K:C
V:1 treble nm="Lead"
V:2 bass-8 nm="Bass"
V:1
"C#m""^I""^(intro ostinato continues through whole song under melody)""^Adagio" (3^G^ce (3Gce (3Gce (3Gce | %1
"C" (3^G^ce (3Gce (3Gce (3Gce |"A" (3A^ce (3Ace"D" (3Ad^f (3Adf | %3
"G#7" (3^G^B^f"C#m" (3G^ce"G#7sus4" (3Gc^d"G#7" (3^F^Bd |:"C#m""^A" z4 z2 ^G>G |"G#7" ^G6 G>G | %6
"C#m" ^G4"F#m" A4 |"E" ^G4"B7" ^F2 B2 |"E" E8 |"Em" z4 z2 G>G |"G7" G6 G>G | %11
"C""Em""A#dim7" G6"F#7" ^F2 |"Bm" ^F4"Em6" G2 E2 |"Bm" ^F4"F#7" F4 |"Bm" z4"B7" z2 B2 | %15
"C7" c6 ^A2 |"B7" B6 B2 |"C7" c6 ^A2 |"B7" B4"G#dim7" B4 |"C#7" B4"F#m" A4 |"G" G4"Cdim7" ^F4 | %21
"F#m" ^C4"C#sus4" C2"C#" C2 |"F#m" z6 ^c>c |"C#7" ^c6 c>c |"F#m" ^c4"D#dim7" =c2"F#m" ^c2 | %25
"G#7" ^d6 d2 |"C#m" e4"B7" ^d2"Gdim7" ^c2 || %27
"G#7b9""^B" ^B4"^soloist start, bass may remain on G# pedal or ad lib" !stemless!B2 !stemless!B2 | %28
 !stemless!B2 !stemless!B2 !stemless!B2 !stemless!B2 | %29
"C#m" !stemless!B2 !stemless!B2 !stemless!B2 !stemless!B2 | %30
 !stemless!B2 !stemless!B2 !stemless!B2 !stemless!B2 | %31
"G#7b9" !stemless!B2 !stemless!B2 !stemless!B2 !stemless!B2 | %32
"C#m" !stemless!B2 !stemless!B2 !stemless!B2 !stemless!B2 | %33
"C#dim7/G#" !stemless!B2 !stemless!B2 !stemless!B2 !stemless!B2 | %34
"G#7b9" !stemless!B2 !stemless!B2 !stemless!B2 !stemless!B2 | %35
 !stemless!B2 !stemless!B2 !stemless!B2 !stemless!B2 | %36
 !stemless!B2 !stemless!B2 !stemless!B2"F#m" !stemless!B2 | %37
"G#7b9" !stemless!B2 !stemless!B2 !stemless!B2"F#m" !stemless!B2 | %38
"G#7b9" !stemless!B2 !stemless!B2"D" !stemless!B2"F#m" !stemless!B2 | %39
"G#7b9" !stemless!B2 !stemless!B2"A" !stemless!B2 !stemless!B2 | %40
"F#m6" !stemless!B2 !stemless!B2"G#7" !stemless!B2 !stemless!B2 :| %41
"C#m""^after final solo:""^A'" z4 z2 ^G>G |"G#7" ^G6 G>G |"C#m" ^G4"F#m" A4 |"E" ^G4"B7" ^F2 B2 | %45
"E" E4 z2 B>B |"B7" B6 B>B |"E" B4"G#7" ^B2"C#m" ^c2 |"G#7" ^d4"C#m" e4 |"D" d4"G#7" ^B4 | %50
"C#m" ^c4"C#" z2 c2 |"D7" d6 c2 |"C#7" ^c6 c2 |"D7" d6 c2 |"C#7" ^c4"F#m" c4 |"B7" B6"E" B2 | %56
"Amaj7" A2"D#dim" A2"G#7b9" ^G2"C#m" G2 |"F#m6" ^F4"G#sus4" ^G2"F#m6" A2 |"C#m" ^G4"G#7" G4 | %59
"C#m" ^C6 ^G>G |"G#7" ^G6 G>G |"C#m" ^G6 G>G |"F#dim7" ^G6 G>G |"C#m" ^G6 G>G |"Cdim7" ^G6 G>G | %65
"C#m" (3^c^Gc (3ecG (3z EG (3cGE | (3z ^CE (3^GEC"^(bass)" (3G^cG (3EGE | ^C4 ^c4 | !fermata!^c8 |] %69
V:2
"C#m" ^C,8 |"C" B,,8 |"A" A,,4"D" ^F,,4 |"G#7""C#m" ^G,,4"G#7sus4""G#7" G,,4 |:"C#m" ^C,8 | %5
"G#7" ^B,,8 |"C#m" ^C,4"F#m" ^F,,4 |"E" B,,4"B7" B,,4 |"E" E,8 |"Em" E,8 |"G7" D,8 | %11
"C" C,2"Em" B,,2"A#dim7""F#7" ^A,,4 |"Bm" B,,4"Em6" E,2 G,2 |"Bm" ^F,4"F#7" ^F,,4 |"Bm""B7" B,,8- | %15
"C7" B,,2 E,2 G,2 E,2 |"B7" B,,8- |"C7" B,,2 E,2 G,2 E,2 |"B7" B,,4"G#dim7" ^G,,4 | %19
"C#7" ^E,,4"F#m" ^F,,4 |"G" B,,4"Cdim7" ^B,,4 |"F#m" ^C,4"C#sus4""C#" C,4 |"F#m" ^F,8 |"C#7" ^E,8 | %24
"F#m" ^F,4"D#dim7" ^D,2"F#m" ^C,2 |"G#7" ^B,,6 B,,2 |"C#m" ^C,4"B7" ^F,,2"Gdim7" G,,2 || %27
"G#7b9" ^G,,8 | !stemless!D,2 !stemless!D,2 !stemless!D,2 !stemless!D,2 | %29
"C#m" !stemless!D,2 !stemless!D,2 !stemless!D,2 !stemless!D,2 | %30
 !stemless!D,2 !stemless!D,2 !stemless!D,2 !stemless!D,2 | %31
"G#7b9" !stemless!D,2 !stemless!D,2 !stemless!D,2 !stemless!D,2 | %32
"C#m" !stemless!D,2 !stemless!D,2 !stemless!D,2 !stemless!D,2 | %33
"C#dim7/G#" !stemless!D,2 !stemless!D,2 !stemless!D,2 !stemless!D,2 | %34
"G#7b9" !stemless!D,2 !stemless!D,2 !stemless!D,2 !stemless!D,2 | %35
 !stemless!D,2 !stemless!D,2 !stemless!D,2 !stemless!D,2 | %36
 !stemless!D,2 !stemless!D,2 !stemless!D,2"F#m" !stemless!D,2 | %37
"G#7b9" !stemless!D,2 !stemless!D,2 !stemless!D,2"F#m" !stemless!D,2 | %38
"G#7b9" !stemless!D,2 !stemless!D,2"D" !stemless!D,2"F#m" !stemless!D,2 | %39
"G#7b9" !stemless!D,2 !stemless!D,2"A" !stemless!D,2 !stemless!D,2 | %40
"F#m6" !stemless!D,2 !stemless!D,2"G#7" !stemless!D,2 !stemless!D,2 :|"C#m" ^C,8 |"G#7" ^B,,8 | %43
"C#m" ^C,4"F#m" ^F,,4 |"E" B,,4"B7" B,,4 |"E" E,8 |"B7" ^D,8 |"E" E,4"G#7" ^D,2"C#m" ^C,2 | %48
"G#7" ^B,,4"C#m" ^C,4 |"D" ^F,,4"G#7" ^G,,4 |"C#m""C#" ^C,8- |"D7" C,2 ^F,2 A,2 F,2 |"C#7" ^C,8- | %53
"D7" C,2 ^F,2 A,2 F,2 |"C#7" ^C,4"F#m" ^F,,4 |"B7" ^D,6"E" E,2 | %56
"Amaj7" ^C,2"D#dim" ^D,2"G#7b9" ^B,,2"C#m" C,2 |"F#m6" A,,4"G#sus4" ^G,,2"F#m6" ^F,,2 | %58
"C#m" ^G,,4"G#7" G,,4 |"C#m" ^G,,6 G,,3/2 G,,/ |"G#7" ^G,,6 G,,3/2 G,,/ |"C#m" ^G,,6 G,,3/2 G,,/ | %62
"F#dim7" ^G,,6 G,,3/2 G,,/ |"C#m" ^G,,6 G,,3/2 G,,/ |"Cdim7" ^G,,6 G,,3/2 G,,/ |"C#m" ^G,,4 ^C,4 | %66
 ^G,,4 (3^G,^CG, (3E,G,E, | ^C,4 C,4 | !fermata!^C,8 |] %69

